packages/core/src/svgs/tokens/mono/FLS.svg

<svg width="24" height="24" viewBox="0 0 24 24" fill="none" xmlns="http://www.w3.org/2000/svg">
<path d="M5.72342 16.3736C9.39738 17.3046 10.1909 19.0853 10.1223 19.8601L5.72342 21.9971H4.84866C4.09906 22.0003 3.37874 21.7063 2.84577 21.1791C2.31278 20.6519 2.01067 19.9349 2.00571 19.1853C2.00571 17.6295 3.28036 16.3736 4.84866 16.3736H5.72342ZM9.18496 16.5797L2.0682 13.0683C1.56833 10.1066 3.92393 9.45675 5.62345 9.50676C6.06708 9.51303 6.49821 9.66305 6.89185 9.86293C8.66011 10.7626 11.7655 12.3311 13.6274 13.2495C15.7268 14.2804 15.8768 15.8987 15.6894 16.5797L11.0157 18.8729C10.7072 17.91 10.0556 17.0938 9.18496 16.5797Z" fill="white"/>
<path d="M15.0329 12.5312L2.00537 6.06429C2.00537 2.8152 4.40471 2.00293 5.69809 2.00293C6.73531 2.00293 7.50384 2.2591 7.76001 2.39032C10.7404 3.83992 17.1324 6.95154 18.8381 7.8013C20.9689 8.86351 21.9998 9.53214 21.9998 11.3003C21.9998 12.9249 21.3125 13.7559 20.6688 14.087C19.6754 14.5932 18.0259 15.4117 17.2012 15.749C17.1347 15.075 16.9019 14.4281 16.5234 13.8664C16.1449 13.3047 15.6327 12.8459 15.0329 12.5312Z" fill="white"/>
</svg>

<svg xmlns="http://www.w3.org/2000/svg" width="24" height="24" fill="none" viewBox="0 0 24 24">
    <path fill="#fff" d="M5.723 16.374c3.674.93 4.468 2.711 4.4 3.486l-4.4 2.137H4.85a2.83 2.83 0 0 1-2.843-2.812c0-1.555 1.274-2.811 2.843-2.811zm3.462.206-7.117-3.512c-.5-2.961 1.856-3.611 3.555-3.561.444.006.875.156 1.269.356 1.768.9 4.873 2.468 6.735 3.387 2.1 1.03 2.25 2.649 2.062 3.33l-4.673 2.293a4.13 4.13 0 0 0-1.831-2.293"/>
    <path fill="#fff" d="M15.033 12.531 2.005 6.064c0-3.249 2.4-4.061 3.693-4.061 1.037 0 1.806.256 2.062.387 2.98 1.45 9.372 4.562 11.078 5.411C20.968 8.864 22 9.532 22 11.301c0 1.624-.687 2.455-1.331 2.786-.994.506-2.643 1.325-3.468 1.662a4.09 4.09 0 0 0-2.168-3.218"/>
</svg>
